!!!OTL: 93d. Der treue Husar.
!!!ODT: 1885
!!!ARE: Europa, Mitteleuropa, Deutschland, Oberlahnkreis; Kreis Wetzlar
!!!SCT: E0093C
!!!TXL: @@DE
!!!YEM: Copyright 1995, estate of Helmut Schaffrath.
**kern	**text
*ICvox	*
*M3/4	*
*k[b-e-a-]	*
*E-:	*
!LO:TX:a:t=Ruhig.	!
!LO:TX:a:t=Oberlahnkreis u. Kr. Wetʒlar. 1885.	!
{8e-	Es
8e-	war
8cc	ein-
=1	=1
(4b-	-mal
8g)	.
8b-	ein
8cc	braver
8cc	Hu-
=2	=2
(4b-	-ſar,
8g)}	.
{8ee-	der
8b-	liebt
8g	ſein
=3	=3
4g	Mädchen
8f	.
8gq	.
8b-/	ein
8.b-/	gan-
16a-	-ʒes
=4	=4
(4a-	Jahr,
8g)}	.
{8e-	ein
8e-	gan-
8cc	-ʒes
=5	=5
(4b-	Jahr
8g)	.
8b-	und
8cc	noch
8cc	viel
=6	=6
(4b-	mehr,
8g)}	.
{8ee-	die
8b-	Lie-
8g	-be
=7	=7
(4g	nahm
8f)	.
8gq	.
8b-/	kein
8.b-/	En-
16a-	-de
=8	=8
4g	mehr.
8r}	.
==	==
!!!AGN: erzaehlendes Volks - Lied, Sage, Liebe, Leid, Tod, Ballade ?
!!!ONB: ESAC (Essen Associative Code) Database: ERK1
!!!AMT: simple triple
!!!AIN: vox
!!!EED: Helmut Schaffrath
!!!EEV: 1.0
!!!GTL: Liebesgeschichten mit tragischem Schluss
!!!URL-scan: https://rosdok.uni-rostock.de/mcrviewer/recordIdentifier/rosdok_ppn745146120/iview2/phys_0395.iview2?x=-422.27491384562836&y=753.2374265259132&scale=0.554360769283424&rotation=0&layout=singlePageLayout
!!!ENC: Anna Maria Matuszewska
!!!EEV: 2024/11/28
*-	*-
